!!!OTL-incipit: FINSTER IST DIE MITTERNACHT
!!!ARE: Europa, Mitteleuropa, Deutschland, Koeln
!!!SCT: Z0091
!!!TXL: @@DE
!!!YEM: Copyright 1995, estate of Helmut Schaffrath.
**kern	**text
*ICvox	*
*M4/4	*
*met(c)	*
*k[b-e-a-d-]	*
*A-:	*
!LO:TX:a:t=Cölniſch.	!
{8.a-	Fin-
16a-	-ſter
=1	=1
4.a-	iſt
8e-	die
4.e-	Mit-
8d-	-ter-
=2	=2
(4d-	-nacht,
4c)	.
4r}	.
{8.a-	Wol-
16f	-ken
=3	=3
4f	ʒie-
2e-	-hen
8.a-	trüb
16f	und
=4	=4
4f	trü-
2e-	-ber,
4r}	.
=5	=5
{4.b-	wil-
8a-	-der
8g	Schauer
8f	.
8e-	ſauſt
8d-	vor-
=6	=6
8cL	-ü-
8e-J	.
2a-	-ber,
4r}	.
=7	=7
{4.cc	al-
8a-	-les
8cc	ruht,
8a-	Ver-
8ee-	-rath
8cc	nur
=8	=8
(2cc	wacht,
4b-)	.
4r}	.
=9	=9
{2.ee-	al-
4aa-	-les
=10	=10
2.ff	ruht,
8ee-L	Ver-
8dd-J	.
=11	=11
2.cc	-rath
4b-	nur
=12	=12
2a-	wacht.
4r}	.
==	==
!!!AGN: Sagen - Lied, Romanze, Sage
!!!ONB: ESAC (Essen Associative Code) Database: ZUCCAL
!!!AMT: simple quadruple
!!!AIN: vox
!!!EED: Helmut Schaffrath
!!!EEV: 1.0
!!!GTL: I. Ernste Romanzen und Sagen.
!!!URL-scan: https://www.digitale-sammlungen.de/de/view/bsb11160571?page=181
!!!ENC: Anna Maria Matuszewska
!!!EEV: 2025/01/27
*-	*-
